X: 35676
T: Sailor's Wife, The
R: jig
M: 6/8
K: Dminor
|:DEF E2 D|Ade f2 g|agf edc|A/B/cA GEC|
DEF E2 D|Ade f2 g|afd ge^c|1 d3 d3:|2 d3 d2||
|:e|fga a3|fga agf|ecg ecg|efg gfe|
fga agf|efg gfe|afd ge^c|d3 d2:|

